svgs/regular/dice-d8.svg

<svg xmlns="http://www.w3.org/2000/svg" viewBox="0 0 512 512"><!--! Font Awesome Pro 6.3.0 by @fontawesome - https://fontawesome.com License - https://fontawesome.com/license (Commercial License) Copyright 2023 Fonticons, Inc. --><path d="M512 256c0-8.625-3.305-17.25-9.868-23.88l-222.2-222.3C273.3 3.262 264.6 0 256 0S238.7 3.262 232.1 9.887L9.868 232.1C3.305 238.8 0 247.4 0 256S3.305 273.3 9.868 279.9l222.2 222.3C238.7 508.7 247.4 512 256 512s17.26-3.262 23.89-9.887l222.2-222.3C508.7 273.2 512 264.7 512 256zM280 77.88l166.4 166.4l-166.4 71.38V77.88zM231.1 315.6L65.6 244.2L231.1 77.88V315.6zM231.1 367.9v66.25l-116-116L231.1 367.9zM280 367.9l116-49.75l-116 116V367.9z"/></svg>

<svg xmlns="http://www.w3.org/2000/svg" viewBox="0 0 512 512"><!-- Font Awesome Pro 6.0.0-alpha2 by @fontawesome - https://fontawesome.com License - https://fontawesome.com/license (Commercial License) --><path d="M512 256C512 247.375 508.718 238.75 502.155 232.125L279.878 9.875C273.252 3.25 264.626 0 256 0S238.748 3.25 232.122 9.875L9.845 232.125C3.282 238.75 0 247.406 0 256.047C0 264.688 3.282 273.312 9.845 279.875L232.122 502.125C238.748 508.75 247.374 512 256 512S273.252 508.75 279.878 502.125L502.155 279.875C508.718 273.25 512 264.625 512 256ZM280.003 77.875L446.398 244.25L280.003 315.625V77.875ZM231.997 315.625L65.602 244.25L231.997 77.875V315.625ZM231.997 367.875V434.125L115.983 318.125L231.997 367.875ZM280.003 367.875L396.017 318.125L280.003 434.125V367.875Z "></path></svg>
